X:1
T:Tuesday Evening Set
P:Tuesday Evening Before Dinner
Q:1/4=120
M:6/8
L:1/8
K:G
D | BAG E2 D | G3 G2 B | BAB d2 B | A3 A2 B | BAG E2 A | AGE D2 D |
DEG AGE | G3 G2 :|
B | BAB d2 d | ege d2 e | dBA B2 d | e3 e2 g | age d2 e | dBA G2 A |
BAG DEG | G3 G2 :|
%
P:Blarney Pilgrim
Q:1/4=120
M:6/8
L:1/8
K:G
"G"DED DEG | "D"A2 D ABc | "G"BAG "C"AGE | "G"G2 G "D"GED | "G"DED DEG |
"D"A2 D ABc | "G"BAG "C"AGE | "D"GED D3 ::
"G"ded "Em"dBG | "D/Am"AGA "G/B7"BAG | "Em"ded "Bm"dBG | "D/C"ABA "G"GBd |
"Em"g2 e "Bm"dBG | "D/C"AGA "G/B7"BAG | "Em"B2 G "C"AGE |
[1 "D/A7"GED "D"D3 :| [2 "D"GED "C"DEG |:
"D/Am"A2 D "G/Bm"B2 D | "D/C"A2 A "D"ABc | "G"BAG "D"AGE | "G"GAG "C"GED |
"D/Am"A2 D "G/Bm"B2 D | "D/C"A2 A "D"ABc | "G/Em"BAG "C/A7"AGE |
[1 "D"GED "C"DEG :| [2 "D"GED D3 |]
%
P:The Kesh Jig
Q:1/4=130
M:6/8
L:1/8
K:G
D | "G"G2G GAB | "D7"A2 A ABd | "G"edd gdd | "D7"edB dBA |
"G"G2G "(Em)"GAB | "Am"A2A "D7"ABd | "G"edd gdB | "D7"ABA "G"G2 ::
A | "G"B2B dBd | "C"ege "G"dBG | "G"B2B dBG | "Am"A3 "D7"AGA |
"G"B2B dBd | "C"ege "G"dBd | "C"g2g aga | "D7"bgg "G"g2 :|
